packages/assets/static/images/icons/certificate.svg

<svg width="24" height="24" viewBox="0 0 24 24" xmlns="http://www.w3.org/2000/svg">
<path d="M12 12.75C12 12.9489 11.921 13.1397 11.7803 13.2803C11.6397 13.421 11.4489 13.5 11.25 13.5H6.75C6.55109 13.5 6.36032 13.421 6.21967 13.2803C6.07902 13.1397 6 12.9489 6 12.75C6 12.5511 6.07902 12.3603 6.21967 12.2197C6.36032 12.079 6.55109 12 6.75 12H11.25C11.4489 12 11.6397 12.079 11.7803 12.2197C11.921 12.3603 12 12.5511 12 12.75ZM11.25 9H6.75C6.55109 9 6.36032 9.07902 6.21967 9.21967C6.07902 9.36032 6 9.55109 6 9.75C6 9.94891 6.07902 10.1397 6.21967 10.2803C6.36032 10.421 6.55109 10.5 6.75 10.5H11.25C11.4489 10.5 11.6397 10.421 11.7803 10.2803C11.921 10.1397 12 9.94891 12 9.75C12 9.55109 11.921 9.36032 11.7803 9.21967C11.6397 9.07902 11.4489 9 11.25 9ZM21.75 15.1378V21C21.7512 21.1322 21.7174 21.2624 21.6521 21.3774C21.5867 21.4923 21.4921 21.588 21.3779 21.6546C21.2637 21.7212 21.1339 21.7565 21.0017 21.7567C20.8695 21.757 20.7395 21.7224 20.625 21.6562L18.375 20.3681L16.125 21.6562C16.0105 21.7224 15.8805 21.757 15.7483 21.7567C15.6161 21.7565 15.4863 21.7212 15.3721 21.6546C15.2579 21.588 15.1633 21.4923 15.0979 21.3774C15.0326 21.2624 14.9988 21.1322 15 21V18.75H3.75C3.35218 18.75 2.97064 18.592 2.68934 18.3107C2.40804 18.0294 2.25 17.6478 2.25 17.25V5.25C2.25 4.85218 2.40804 4.47064 2.68934 4.18934C2.97064 3.90804 3.35218 3.75 3.75 3.75H20.25C20.6478 3.75 21.0294 3.90804 21.3107 4.18934C21.592 4.47064 21.75 4.85218 21.75 5.25V8.11219C22.2241 8.5662 22.6014 9.11149 22.8592 9.71521C23.1169 10.3189 23.2498 10.9686 23.2498 11.625C23.2498 12.2814 23.1169 12.9311 22.8592 13.5348C22.6014 14.1385 22.2241 14.6838 21.75 15.1378ZM15 17.25V15.1378C14.1827 14.3496 13.6662 13.3008 13.5396 12.1724C13.4129 11.044 13.6842 9.90685 14.3065 8.95709C14.9287 8.00733 15.863 7.30458 16.9481 6.97011C18.0332 6.63563 19.201 6.69041 20.25 7.125V5.25H3.75V17.25H15ZM20.25 16.125C19.656 16.3732 19.0187 16.5009 18.375 16.5009C17.7313 16.5009 17.094 16.3732 16.5 16.125V19.7081L18 18.8494C18.1133 18.7846 18.2416 18.7505 18.3722 18.7505C18.5027 18.7505 18.631 18.7846 18.7444 18.8494L20.2444 19.7081L20.25 16.125ZM21.75 11.625C21.75 10.9575 21.5521 10.305 21.1812 9.74995C20.8104 9.19493 20.2833 8.76235 19.6666 8.50691C19.0499 8.25146 18.3713 8.18462 17.7166 8.31485C17.0619 8.44507 16.4605 8.76651 15.9885 9.23851C15.5165 9.71052 15.1951 10.3119 15.0648 10.9666C14.9346 11.6213 15.0015 12.2999 15.2569 12.9166C15.5124 13.5333 15.9449 14.0604 16.5 14.4312C17.055 14.8021 17.7075 15 18.375 15C18.8182 15 19.2571 14.9127 19.6666 14.7431C20.076 14.5735 20.4481 14.3249 20.7615 14.0115C21.0749 13.6981 21.3235 13.326 21.4931 12.9166C21.6627 12.5071 21.75 12.0682 21.75 11.625Z"/>
</svg>

<svg viewBox="0 0 24 24" xmlns="http://www.w3.org/2000/svg" aria-hidden="true" fill="currentColor"><path d="M12 12.75a.75.75 0 0 1-.75.75h-4.5a.75.75 0 1 1 0-1.5h4.5a.75.75 0 0 1 .75.75M11.25 9h-4.5a.75.75 0 0 0 0 1.5h4.5a.75.75 0 1 0 0-1.5m10.5 6.138V21a.75.75 0 0 1-1.125.656l-2.25-1.288-2.25 1.288A.75.75 0 0 1 15 21v-2.25H3.75a1.5 1.5 0 0 1-1.5-1.5v-12a1.5 1.5 0 0 1 1.5-1.5h16.5a1.5 1.5 0 0 1 1.5 1.5v2.862a4.865 4.865 0 0 1 0 7.026M15 17.25v-2.112a4.875 4.875 0 0 1 5.25-8.013V5.25H3.75v12zm5.25-1.125a4.86 4.86 0 0 1-3.75 0v3.583l1.5-.859a.75.75 0 0 1 .744 0l1.5.86zm1.5-4.5a3.375 3.375 0 1 0-6.75 0 3.375 3.375 0 0 0 6.75 0"/></svg>
